src/img/logo.svg

<svg width="42" height="42" viewBox="0 0 42 42" fill="none" xmlns="http://www.w3.org/2000/svg">
<path fill-rule="evenodd" clip-rule="evenodd" d="M33.7783 41.2292L31.2253 26.3499L41.6085 15.8899L29.6875 14.1786C23.4571 28.5473 21.4972 34.2977 33.7783 41.2292ZM21.1085 0.229248L14.856 13.8446L0.608521 15.8899L10.9917 26.3499L8.43877 41.2292L27.361 13.8446L29.6875 14.1786L27.361 13.8446L21.1085 0.229248Z" fill="url(#paint0_linear)"/>
<defs>
<linearGradient id="paint0_linear" x1="32.1293" y1="55.9305" x2="57.7307" y2="22.0954" gradientUnits="userSpaceOnUse">
<stop stop-color="#06DBEC"/>
<stop offset="1" stop-color="#B808FF"/>
</linearGradient>
</defs>
</svg>

<svg width="42" height="42" fill="none" xmlns="http://www.w3.org/2000/svg"><path fill-rule="evenodd" clip-rule="evenodd" d="m33.778 41.23-2.553-14.88 10.383-10.46-11.92-1.711c-6.23 14.368-8.19 20.119 4.09 27.05Zm-12.67-41-6.252 13.615L.609 15.89l10.383 10.46-2.553 14.88L27.36 13.844l2.326.334-2.326-.334L21.108.229Z" fill="url(#a)"/><defs><linearGradient id="a" x1="32.129" y1="55.931" x2="57.731" y2="22.095" gradientUnits="userSpaceOnUse"><stop stop-color="#06DBEC"/><stop offset="1" stop-color="#B808FF"/></linearGradient></defs></svg>
